contributed-vectors/infinite_loop.svg

<svg xmlns="http://www.w3.org/2000/svg" xml:space="preserve" style="fill-rule:evenodd;clip-rule:evenodd;stroke-linejoin:round;stroke-miterlimit:2" viewBox="0 0 192 192"><path d="M164.5 21.5c0-5.519-4.481-10-10-10h-133c-5.519 0-10 4.481-10 10v133c0 5.519 4.481 10 10 10h133c5.519 0 10-4.481 10-10v-133Z" style="fill:#fff" transform="translate(8 8)"/><path d="M121.173 75.673c11.159.071 20.196 9.152 20.196 20.327 0 11.219-9.108 20.327-20.327 20.327-7.175 0-13.486-3.725-17.105-9.346a21.443 21.443 0 0 0 2.46-6.183c2.019 6.158 7.816 10.61 14.645 10.61 8.504 0 15.408-6.904 15.408-15.408l-.001-.135c-.072-8.442-6.948-15.273-15.407-15.273h-.091l-.029.001h-.063l-.032.001-.063.001h-.029l-.091.002-.091.003-.027.001-.064.002-.032.001-.062.003-.029.001-.091.004-.09.005-.026.002-.064.004-.032.002-.061.004-.03.002-.09.006-.089.007-.026.003-.064.005-.031.003-.061.005-.03.003-.089.009-.089.009-.024.003-.065.007-.031.004-.06.007-.03.003-.089.011-.087.012-.024.003-.065.009-.031.004-.059.009-.03.004-.088.013-.087.014-.088.014-.03.005-.059.01-.03.005-.088.016-.086.016-.086.016-.031.006-.057.011-.031.006-.063.013-.024.005-.085.017-.086.019-.03.006-.057.013-.031.007-.06.014-.026.005-.084.02-.085.021-.03.007-.056.014-.031.008-.058.014-.027.007-.083.022-.084.022-.031.009-.054.015-.032.009-.056.015-.029.008-.081.024-.083.024-.031.009-.053.016-.033.01-.053.017-.03.009-.08.025-.082.027-.032.01-.051.017-.033.011-.052.017-.031.01-.08.028-.08.028-.031.011-.05.018-.034.012-.049.018-.032.011-.08.03-.078.029-.032.013-.048.018-.035.013-.046.019-.034.013-.079.031-.076.031-.033.014-.046.019-.036.015-.044.018-.035.015-.078.033-.074.032-.034.015-.043.019-.037.017-.042.019-.036.016-.078.035-.071.033-.036.017-.041.019-.038.018-.038.019-.039.018-.076.037-.069.035-.038.019-.037.018-.04.02-.035.018-.04.021-.036.018-.047.025-.059.031-.041.021-.033.018-.041.022-.033.018-.041.022-.032.017-.042.023-.065.037-.072.04-.043.025-.03.016-.043.025-.027.016-.045.026-.064.038-.07.041-.044.027-.026.016-.045.027-.024.015-.047.028a2.199 2.199 0 0 0-.063.04l-.067.042-.047.029-.022.015-.047.029-.02.013-.049.032-.062.041-.064.042-.049.033-.019.013-.048.032-.067.046-.062.042-.061.043-.052.036-.015.011-.05.036-.013.009-.225.164-.011.008-.052.039-.009.007a9.669 9.669 0 0 0-.226.174l-.066.051-.227.183-.059.049a15.449 15.449 0 0 0-4.816 7.064v-.001a15.389 15.389 0 0 0-.763 4.799c0 11.219-9.108 20.327-20.327 20.327-11.219 0-20.328-9.108-20.328-20.327l.001-.131c.07-11.159 9.152-20.196 20.327-20.196 7.174 0 13.486 3.725 17.105 9.346a21.478 21.478 0 0 0-2.461 6.182c-2.019-6.157-7.816-10.609-14.644-10.609-8.504 0-15.408 6.904-15.408 15.408s6.904 15.408 15.408 15.408 15.408-6.904 15.408-15.408v-.135l.001-.128.002-.131.001-.011.001-.052.001-.067.001-.016.001-.052.002-.063.001-.019.001-.052.003-.059v-.023l.003-.051.002-.056.001-.027.003-.05.002-.053.002-.031.002-.048.003-.051.002-.035.003-.047.003-.048.002-.038.003-.046.003-.045.003-.042.004-.044.003-.043.002-.022.001-.024.004-.043.003-.04.002-.023.002-.026.004-.042.003-.038.002-.024.003-.029.004-.04.003-.035.003-.026.002-.031.004-.038.004-.033.003-.028.003-.033.004-.036.003-.031.003-.029.004-.035.004-.035.003-.029.004-.03.004-.038.004-.033.003-.026.004-.032.005-.04.004-.031.003-.024.004-.033.006-.042.004-.03.003-.022.004-.034.006-.045.004-.028.003-.02.005-.035.007-.047.003-.026.003-.019.006-.036.007-.049.006-.041.006-.038.008-.051.006-.037.006-.04.009-.052.005-.034.007-.042.009-.054.005-.029.008-.046.01-.054.004-.025.009-.05.01-.053.004-.022.011-.056.009-.05.004-.019.012-.066.012-.058.023-.113v-.003a20.192 20.192 0 0 1 2.811-6.895l.048-.075.039-.058a20.435 20.435 0 0 1 7.269-6.724l.002-.001c.068-.037.137-.075.206-.111l.072-.039.07-.036.198-.103.017-.008.195-.098.069-.034.11-.054.112-.053.111-.052.112-.052.065-.03.048-.022.112-.05.056-.025.058-.025.113-.049.047-.02.067-.029.078-.033.036-.015.038-.015.076-.032.07-.028.045-.019.029-.011.087-.034.06-.024.055-.022.116-.044.052-.02.064-.024.085-.031.032-.012.042-.016.075-.027.075-.026.042-.015.033-.012.084-.029.066-.023.052-.018.016-.005.089-.03.014-.004.056-.019.062-.02.011-.004.091-.029.017-.005.047-.015.072-.023.081-.025.039-.012.037-.011.082-.025.072-.021.048-.014.015-.004.096-.028.072-.02.058-.017.011-.003.097-.026.066-.018.069-.018.006-.002.099-.026.059-.015.079-.02.077-.019.045-.011.015-.004.101-.024.074-.018.056-.012.011-.003.102-.023.067-.015.066-.015.007-.001.104-.023.06-.012.079-.017.106-.021.03-.006.106-.021.077-.014.052-.01.011-.002.106-.019.07-.013.063-.011.007-.001.108-.018.063-.011.077-.012.109-.017.028-.004.11-.017.079-.011.049-.007.012-.002.109-.015.074-.009.059-.008.008-.001.11-.014.067-.008.074-.008.111-.013.06-.006.081-.008.113-.012.027-.002.112-.011.077-.006.055-.005.01-.001.112-.009.07-.005.072-.005.113-.007.063-.004.079-.005.114-.006.027-.002.115-.005.08-.003.052-.002.011-.001.113-.004.074-.002.063-.002h.007l.114-.002.067-.002.077-.001.115-.001h.275Z" style="fill:#96dfd3" transform="translate(-7.174)"/></svg>

<?xml version="1.0" encoding="UTF-8" standalone="no"?>
<!DOCTYPE svg PUBLIC "-//W3C//DTD SVG 1.1//EN" "http://www.w3.org/Graphics/SVG/1.1/DTD/svg11.dtd">
<svg width="100%" height="100%" viewBox="0 0 192 192" version="1.1" xmlns="http://www.w3.org/2000/svg" xmlns:xlink="http://www.w3.org/1999/xlink" xml:space="preserve" xmlns:serif="http://www.serif.com/" style="fill-rule:evenodd;clip-rule:evenodd;stroke-linejoin:round;stroke-miterlimit:2;">
    <g id="Layer1">
        <g transform="matrix(1,0,0,1,8,8)">
            <path d="M164.5,21.5C164.5,15.981 160.019,11.5 154.5,11.5L21.5,11.5C15.981,11.5 11.5,15.981 11.5,21.5L11.5,154.5C11.5,160.019 15.981,164.5 21.5,164.5L154.5,164.5C160.019,164.5 164.5,160.019 164.5,154.5L164.5,21.5Z" style="fill:white;"/>
        </g>
        <g transform="matrix(1,0,0,1,-7.17438,0)">
            <path d="M121.173,75.673C132.332,75.744 141.369,84.825 141.369,96C141.369,107.219 132.261,116.327 121.042,116.327C113.867,116.327 107.556,112.602 103.937,106.981C105.057,105.087 105.897,103.007 106.397,100.798C108.416,106.956 114.213,111.408 121.042,111.408C129.546,111.408 136.45,104.504 136.45,96C136.45,95.955 136.45,95.91 136.449,95.865C136.377,87.423 129.501,80.592 121.042,80.592L120.951,80.592L120.922,80.593L120.859,80.593L120.827,80.594L120.764,80.595L120.735,80.595L120.644,80.597L120.553,80.6L120.526,80.601L120.462,80.603L120.43,80.604L120.368,80.607L120.339,80.608L120.248,80.612L120.158,80.617L120.132,80.619L120.068,80.623L120.036,80.625L119.975,80.629L119.945,80.631L119.855,80.637L119.766,80.644L119.74,80.647L119.676,80.652L119.645,80.655L119.584,80.66L119.554,80.663L119.465,80.672L119.376,80.681L119.352,80.684L119.287,80.691L119.256,80.695L119.196,80.702L119.166,80.705L119.077,80.716L118.99,80.728L118.966,80.731L118.901,80.74L118.87,80.744L118.811,80.753L118.781,80.757L118.693,80.77L118.606,80.784L118.518,80.798L118.488,80.803L118.429,80.813L118.399,80.818L118.311,80.834L118.225,80.85L118.139,80.866L118.108,80.872L118.051,80.883L118.02,80.889L117.957,80.902L117.933,80.907L117.848,80.924L117.762,80.943L117.732,80.949L117.675,80.962L117.644,80.969L117.584,80.983L117.558,80.988L117.474,81.008L117.389,81.029L117.359,81.036L117.303,81.05L117.272,81.058L117.214,81.072L117.187,81.079L117.104,81.101L117.02,81.123L116.989,81.132L116.935,81.147L116.903,81.156L116.847,81.171L116.818,81.179L116.737,81.203L116.654,81.227L116.623,81.236L116.57,81.252L116.537,81.262L116.484,81.279L116.454,81.288L116.374,81.313L116.292,81.34L116.26,81.35L116.209,81.367L116.176,81.378L116.124,81.395L116.093,81.405L116.013,81.433L115.933,81.461L115.902,81.472L115.852,81.49L115.818,81.502L115.769,81.52L115.737,81.531L115.657,81.561L115.579,81.59L115.547,81.603L115.499,81.621L115.464,81.634L115.418,81.653L115.384,81.666L115.305,81.697L115.229,81.728L115.196,81.742L115.15,81.761L115.114,81.776L115.07,81.794L115.035,81.809L114.957,81.842L114.883,81.874L114.849,81.889L114.806,81.908L114.769,81.925L114.727,81.944L114.691,81.96L114.613,81.995L114.542,82.028L114.506,82.045L114.465,82.064L114.427,82.082L114.389,82.101L114.35,82.119L114.274,82.156L114.205,82.191L114.167,82.21L114.13,82.228L114.09,82.248L114.055,82.266L114.015,82.287L113.979,82.305L113.932,82.33L113.873,82.361L113.832,82.382L113.799,82.4L113.758,82.422L113.725,82.44L113.684,82.462L113.652,82.479L113.61,82.502C113.588,82.514 113.567,82.527 113.545,82.539L113.473,82.579L113.43,82.604L113.4,82.62L113.357,82.645L113.33,82.661L113.285,82.687C113.264,82.7 113.242,82.712 113.221,82.725L113.151,82.766L113.107,82.793L113.081,82.809L113.036,82.836L113.012,82.851L112.965,82.879C112.944,82.892 112.923,82.905 112.902,82.919L112.835,82.961L112.788,82.99L112.766,83.005L112.719,83.034L112.699,83.047L112.65,83.079C112.63,83.092 112.609,83.106 112.588,83.12L112.524,83.162L112.475,83.195L112.456,83.208L112.408,83.24L112.341,83.286C112.32,83.3 112.3,83.314 112.279,83.328L112.218,83.371L112.166,83.407L112.151,83.418L112.101,83.454L112.088,83.463C112.013,83.517 111.937,83.572 111.863,83.627L111.852,83.635L111.8,83.674L111.791,83.681C111.715,83.738 111.639,83.796 111.565,83.855L111.499,83.906C111.423,83.967 111.347,84.028 111.272,84.089L111.213,84.138C109.003,85.972 107.312,88.412 106.397,91.202L106.397,91.201C105.902,92.712 105.634,94.325 105.634,96C105.634,107.219 96.526,116.327 85.307,116.327C74.088,116.327 64.979,107.219 64.979,96L64.98,95.869C65.05,84.71 74.132,75.673 85.307,75.673C92.481,75.673 98.793,79.398 102.412,85.019C101.292,86.913 100.452,88.993 99.951,91.201C97.932,85.044 92.135,80.592 85.307,80.592C76.803,80.592 69.899,87.496 69.899,96C69.899,104.504 76.803,111.408 85.307,111.408C93.811,111.408 100.715,104.504 100.715,96L100.715,95.865L100.716,95.737L100.718,95.606L100.719,95.595L100.72,95.543L100.721,95.476L100.722,95.46L100.723,95.408L100.725,95.345L100.726,95.326L100.727,95.274L100.73,95.215L100.73,95.192L100.733,95.141L100.735,95.085L100.736,95.058L100.739,95.008L100.741,94.955L100.743,94.924L100.745,94.876L100.748,94.825L100.75,94.79L100.753,94.743L100.756,94.695L100.758,94.657L100.761,94.611L100.764,94.566L100.767,94.524L100.771,94.48L100.774,94.437L100.776,94.415L100.777,94.391L100.781,94.348L100.784,94.308L100.786,94.285L100.788,94.259L100.792,94.217L100.795,94.179L100.797,94.155L100.8,94.126L100.804,94.086L100.807,94.051L100.81,94.025L100.812,93.994L100.816,93.956L100.82,93.923L100.823,93.895L100.826,93.862L100.83,93.826L100.833,93.795L100.836,93.766L100.84,93.731L100.844,93.696L100.847,93.667L100.851,93.637L100.855,93.599L100.859,93.566L100.862,93.54L100.866,93.508L100.871,93.468L100.875,93.437L100.878,93.413L100.882,93.38L100.888,93.338L100.892,93.308L100.895,93.286L100.899,93.252L100.905,93.207L100.909,93.179L100.912,93.159L100.917,93.124L100.924,93.077L100.927,93.051L100.93,93.032L100.936,92.996L100.943,92.947L100.949,92.906L100.955,92.868L100.963,92.817L100.969,92.78L100.975,92.74L100.984,92.688L100.989,92.654L100.996,92.612L101.005,92.558L101.01,92.529L101.018,92.483L101.028,92.429L101.032,92.404L101.041,92.354L101.051,92.301L101.055,92.279L101.066,92.223L101.075,92.173L101.079,92.154L101.091,92.088L101.103,92.03L101.126,91.917L101.126,91.914C101.636,89.419 102.603,87.09 103.937,85.019C103.937,85.019 103.985,84.944 103.985,84.944L104.024,84.886C105.853,82.091 108.353,79.773 111.293,78.162L111.295,78.161C111.363,78.124 111.432,78.086 111.501,78.05L111.573,78.011L111.643,77.975C111.709,77.94 111.775,77.906 111.841,77.872L111.858,77.864C111.923,77.831 111.988,77.798 112.053,77.766L112.122,77.732L112.232,77.678L112.344,77.625L112.455,77.573L112.567,77.521L112.632,77.491L112.68,77.469L112.792,77.419L112.848,77.394L112.906,77.369L113.019,77.32L113.066,77.3L113.133,77.271L113.211,77.238L113.247,77.223L113.285,77.208L113.361,77.176L113.431,77.148L113.476,77.129L113.505,77.118L113.592,77.084L113.652,77.06L113.707,77.038L113.823,76.994L113.875,76.974L113.939,76.95L114.024,76.919L114.056,76.907L114.098,76.891L114.173,76.864L114.248,76.838L114.29,76.823L114.323,76.811L114.407,76.782L114.473,76.759L114.525,76.741L114.541,76.736C114.571,76.726 114.6,76.716 114.63,76.706L114.644,76.702L114.7,76.683L114.762,76.663L114.773,76.659C114.804,76.649 114.834,76.64 114.864,76.63L114.881,76.625L114.928,76.61L115,76.587L115.081,76.562L115.12,76.55L115.157,76.539L115.239,76.514L115.311,76.493L115.359,76.479L115.374,76.475C115.406,76.465 115.438,76.456 115.47,76.447L115.542,76.427L115.6,76.41L115.611,76.407C115.644,76.398 115.676,76.39 115.708,76.381L115.774,76.363L115.843,76.345L115.849,76.343C115.882,76.334 115.915,76.326 115.948,76.317L116.007,76.302L116.086,76.282L116.163,76.263L116.208,76.252L116.223,76.248C116.257,76.24 116.29,76.232 116.324,76.224L116.398,76.206L116.454,76.194L116.465,76.191C116.499,76.183 116.533,76.175 116.567,76.168L116.634,76.153L116.7,76.138L116.707,76.137C116.741,76.129 116.776,76.122 116.811,76.114L116.871,76.102L116.95,76.085C116.986,76.078 117.021,76.071 117.056,76.064L117.086,76.058C117.121,76.051 117.157,76.044 117.192,76.037L117.269,76.023L117.321,76.013L117.332,76.011C117.367,76.004 117.403,75.998 117.438,75.992L117.508,75.979L117.571,75.968L117.578,75.967C117.614,75.961 117.65,75.955 117.686,75.949L117.749,75.938L117.826,75.926C117.862,75.92 117.898,75.915 117.935,75.909L117.963,75.905C117.999,75.899 118.036,75.894 118.073,75.888L118.152,75.877L118.201,75.87L118.213,75.868C118.249,75.863 118.286,75.858 118.322,75.853L118.396,75.844L118.455,75.836L118.463,75.835C118.5,75.83 118.536,75.826 118.573,75.821L118.64,75.813L118.714,75.805C118.751,75.8 118.788,75.796 118.825,75.792L118.885,75.786L118.966,75.778C119.003,75.774 119.041,75.77 119.079,75.766L119.106,75.764C119.143,75.76 119.181,75.757 119.218,75.753L119.295,75.747L119.35,75.742L119.36,75.741C119.397,75.738 119.434,75.735 119.472,75.732L119.542,75.727L119.614,75.722C119.652,75.719 119.689,75.717 119.727,75.715L119.79,75.711L119.869,75.706C119.907,75.704 119.945,75.702 119.983,75.7L120.01,75.698C120.048,75.697 120.087,75.695 120.125,75.693L120.205,75.69L120.257,75.688L120.268,75.687C120.306,75.686 120.344,75.684 120.381,75.683L120.455,75.681L120.518,75.679L120.525,75.679C120.563,75.678 120.601,75.677 120.639,75.677L120.706,75.675L120.783,75.674C120.822,75.674 120.86,75.673 120.898,75.673L120.958,75.673L121.042,75.673L121.173,75.673Z" style="fill:rgb(150,223,211);"/>
        </g>
    </g>
</svg>
